X:1
T:F Major Harmonized by Ananias Davisson, 1820
T:Unknown Author, 1819
T:Crucifixion
T:Transcribed from The Kentucky Harmony, 1825
%%score [ 1 2 3 4 ]
L:1/8
Q:1/4=110
M:4/4
K:F
V:1 treble nm="Tr." snm="Tr."
V:2 treble nm="C." snm="C."
V:3 treble-8 nm="T." snm="T."
V:4 bass nm="B." snm="B."
V:1
 c4 f2 d2 | c4 c4 | (A2 d2) dc A2 | G4 G4 | (A2 c2) c2 d2 | (d2 e2) fe d2 | e8 | z4 F3 G | %8
w: 1.~Saw ye my|Sa- vior,|Saw~ _ ye * my|Sa- vior,|Saw~ * ye my|Sa- * vior * and|God:|O! he|
w: 2.~He was ex-|ten- ded,|He~ _ was * ex-|ten- ded,|Pain- * ful- ly|nailed * to * the|cross;|Then he|
 A2 c2 c2 A2 | d4 d2 c2 | de f2 dc A2 | F4 D2 F2 | A4 A2 G2 | c4 c2 c2 | c8 |] %15
w: died on Cal- va-|ry, To a-|tone * for you * and|me, And to|pur- chase our|par- don with|blood.|
w: bowed his head and|dies, Thus my|Lord * was cru- * ci-|fied, To a-|tone for a|world that was|lost.|
V:2
 F4 F2 F2 | A4 A4 | A4 B2 A2 | (A G3) G4 | (F2 E2) F2 G2 | A4 A2 A2 | G8 | z4 c3 B | A2 G2 F2 F2 | %9
w: 3.~Je- sus hung|blee- ding,|Je- sus hung|blee- * ding,|For * three dread-|ful hours in|pain;|While the|sun re- fused to|
w: 4.~When it was|fin- ished,|When it was|fin- * ished,|And * the a-|tone- ment was|made;|He was|ta- ken by the|
 A4 F2 F2 | G2 A2 GF D2 | F4 F2 F2 | D4 c2 d2 | A4 G2 G2 | F8 |] %15
w: shine, When his|ma- jes- ty * di-|vine Was de-|ri- ded, in-|sul- ted, and|shamed.|
w: great, And em-|balmed in spi- * ces|sweet, And was|in a new|se- pul- chre|laid.|
V:3
 F4 A2 B2 | c4 c4 | (d g3) g2 f2 | (e c3) c4 | (f2 e2) f2 g2 | (f2 e2) d2 d2 | c8 | z4 c3 B | %8
w: 5.~Hail, migh- ty|Sa- vior!|Hail,~ _ migh- ty|Sa- * vior!|Prince * and the|au- * thor of|peace;|O! he|
w: 6.~Now in- er-|ce- ding,|Now~ _ in- ter-|ce- * ding,|Plea- * ding that|sin- * ners might|live;|Say- ing,|
 A2 G2 A2 f2 | A4 A2 A2 | G2 F2 G2 A2 | B4 A2 c2 | d4 c2 B2 | c4 G2 G2 | F8 |] %15
w: burst the bars of|death, And tri-|um- phing, left the|earth, He a-|scen- ded to|man- sions of|bliss.|
w: Fa- ther, I have|died, O, be-|hold my hands and|side, To re-|deem them; I|pray thee, for-|give.|
V:4
 F,4 F,2 F,2 | F,4 F,4 | D,4 D,2 F,2 | C,4 C,4 | (C2 A,2) F,2 D,2 | F,4 D,2 A,,2 | C,8 | z4 C3 D | %8
w: 7.~"I will for-|give them,|I will for-|give them,|When * they re-|pent and be-|lieve;|Let them|
 C2 C2 F,2 F,2 | D,4 D,2 F,2 | G,2 A,2 G,2 F,2 | %11
w: now re- turn to|me, And be|re- con- ciled to|
"^____________________________________________________________________\nEdited by B. C. Johnston, 2017\n   1. Measure 5, All parts: first two notes tied only, as in \nSouthern Harmony\n.\n   2. Measure 5, Bass: replaced C-B-F-D with C-A-F-D, a misprint in 1825 (Music 2005 and Southern Harmony)." B,4 A,2 F,2 | %12
w: me, And sal-|
 D,4 A,,2 B,,2 | C,4 C,2 C,2 | F,8 |] %15
w: va- tion they|all shall re-|ceive.|

